!!!OTL: Bei der Nacht (42a), S. 135
!!!id: T0171
**kern
*clefG2
*k[]
*G:
{8g
8a
=1
4b
4b
4b
4a
=2
4g
4d
4g}
=3
{8g
8b
=4
4dd
4dd
4dd
4cc
=5
4b}
2r
=6
{4dd
=7
4b
4dd
4dd
4ee
=8
2dd
4cc
4a}
=9
{2g
4a
4cc
=10
4.b
8a
4b}
=11
{8g
8b
=12
4dd
4dd
4dd
4cc
=13
4b}
2r
=14
{4dd
=15
4b
4dd
4dd
4ee
=16
4dd
4cc
4b
4a}
=17
{2g
4a
4cc
=18
4.b
8a
4b}
=19
{8g
8b
=20
4dd
4dd
4dd
4cc
=21
4b}
2r
==
*-
!!!minrhy: 8
!!!meters: 4/4 ]  ZZ[8
!!!cut: Bei der Nacht (42a), S. 135
!!!reg: Luxemburg
!!!trd: Singendes Volk, Esch-Alzette 1937 posth.
!!!rhy1: XX  X_X_X_X_  X_X_X_
!!!rhy2: XX  X_X_X_X_  X_0__
!!!key: T0171  08  G 4/4 ]  ZZ[8
!!!mod: SECHSTONSKALA DUR ?]  AMBITUS[9
!!!kad: 13233233
!!!akz: 3311_553_3554_1233_553_3553_1233_553_
!!!fot: 'a__as'b__c__as'bw_c__as'
!!!for: 'a__aw_aw_b__aw_aw_b__aw_
!!!fok: '~__^a_Sd_/__^a_Sd_/__^a_
!! PHRAS[VORWIEGEND AUFTAKTIG]
!!!fkt: Liebeslieder
!!!bem1: StraPen, fff Witry, 17.1.1933;
!!!bem2: (42b)- idem;
!!!bem3: (42c)- Monnerich, hhh Dominik M&uuml;ller aus Esch_alz., 15.5.1915
!! THILL, Mathias:
!! PR[43] 2K[7] 2G[19] 3K[4] 3G[0] 4A[0] 4Ü[2] 5A[0] 6K[0] 6G[0]
!! 7K[0] 7G[0] 8A[0] MEHR[0] SI[31] ABS[54] SR[26] SP[6]
!! ST[14] 2k[4] 2g[13] 3k[4] 3g[2] 4d[4] 4ü[0] 5d[0] 6k[0] 6g[0]
!! 7k[0] 7g[0] 8d[0] mehr[0] si[26] dm[+5] sr[17] sp[9]
!! 1F[21] 2F[70] 3F[9] 4F[0] LF[0] 2P[0] 3P[0] 4P[0] TRI[0] DF[3] AB[57]
!! TF[0] U3K[0] U3[0] U4[0] U4Ü[0] U5[0] U6K[0] U6[0] U7K[0] U7[0]
!! N1[0] N2K[0] N2[15] N3K[0] N3[31] N4[16] N4Ü[0] N5[29] N6K[0] N6[4]
!!!n7k: 0] N7[5] O1[0] O2K[0] O2[0] O3K[0] O3[0] HÖ[0
!!!RNB: symbol: &uuml;  = u umlaut (UTF-8: Ã¼)
